X:1
T:Good Christian People All
T:Good Christian People All
T:Henry Gough Trembath (1843-1908)
T:E. Haskins, 1888
T:Public Domain Courtesy of the Cyber Hymnal™
T:Public Domain Courtesy of the Cyber Hymnal™
C:Henry Gough Trembath (1843-1908)
Z:Public Domain
Z:Courtesy of the Cyber Hymnal™
%%score ( 1 2 ) ( 3 4 )
L:1/8
Q:1/4=105
M:6/8
K:F
V:1 treble 
V:2 treble 
V:3 bass 
V:4 bass 
V:1
 [Fc] | [Fc]2 [Fd] [Fc]2 [FB] | [FA]3- [FA]2 [FA] | [FA]2 [FB] [FA]2 [EG] | F3 [FA]3 | %5
w: 1.~Good|Christ- ian peo- ple|all, * A|mer- ry Christ- mas|day; Hark|
w: 2.~Oh,|praise the King of|Heav’n! * For|on this bless- èd|morn To|
w: 3.~Springs|forth a fruit- ful|rod * From|Jes- se’s roy- al|stem, And|
w: 4.~En-|wrapt in swath- ing|bands, * And|in a man- ger|laid, Be-|
w: 5.~The|dark- ness now is|past, * The|light of life doth|shine, The|
 [EG]2 [E^F] [EG] [EA]2 | [FB]2 [FA] [FB] [Gd]2 | ([Ad]3 [Gc]2) [FB] | [FA]3- [FA]2 || %9
w: how the bells do|call! A- rise and|come * a-|way! *|
w: us a son is|giv’n, To us a|child * is|born! *|
w: Christ, in- car- nate|God, Is born at|Beth- * le-|hem. *|
w: hold Him, by whose|hands The heav’ns and|earth * were|made. *|
w: day hath daawned at|last, Be- hold the|appoint- * ed|sign. *|
"^Refrain" [Fc] | [Fc]2 [Fd] [Fc]2 [FB] | [FA]3- [FA]2 [FA] | [FA]2 [GB] [FA]2 [EG] | %13
w: ||||
w: ||||
w: Come|see the won- drous|thing * The|an- gels’ lips re-|
w: ||||
w: ||||
[M:2/4] F2 [Fc]2 |[Q:1/4=95] [FB]>[EA] [DG][CF] | (E-[DE] C) ([Gc]2 [Gc]) | [F=B]>[EA] [DG][CF] | %17
w: ||||
w: ||||
w: veal! And|let the joy- bells|ring * * A *|wel- come to the|
w: ||||
w: ||||
 [=B,E][B,D] CD/E/ | F/G/A/B/ c[EG] | B3 [Gc]/[GB]/ | [FA][FB] [EG]>F | F3 F | [FA]2 z [FA] | %23
w: ||||||
w: ||||||
w: new- born King, With a|mer- ry, mer- ry Christ- mas|peal, With a|mer- ry Christ- mas|peal, No-|el! No-|
w: ||||||
w: ||||||
!<(! [Ac]2 [Bd]2!<)! | [Ac]4- | [Ac]2 [FA]2 |!>(! [FB]>!>)![FB] [FB][FB] | [FA]>!<(![EG] F!<)!F | %28
w: |||||
w: |||||
w: el! No-|el!|* Let|all up- on the|earth that dwell, Sing|
w: |||||
w: |||||
!<(! [Fd]>!<)![Fd] [Ee][Ed] | [Fc]>[FB] [FA]!<(![FA] | [FB]2 [Fd]2 | !fermata![Fc]3!<)! [Ec] | %32
w: ||||
w: ||||
w: prais- es to Em-|man- u- el: No-|el! No-|el! No-|
w: ||||
w: ||||
 !fermata![FAcf]4 |] %33
w: |
w: |
w: el!|
w: |
w: |
V:2
 x | x6 | x6 | x6 | F3 x3 | x6 | x6 | x6 | x5 || x | x6 | x6 | x6 |[M:2/4] F2 x2 | x4 | %15
 [=B,C]2 x4 | x4 | x2 CD/E/ | F/G/A/B/ c x | (F2 G) x | x7/2 F/ | F3 F | x4 | x4 | x4 | x4 | x4 | %27
 x2 FF | x4 | x4 | x4 | x4 | x4 |] %33
V:3
 [F,A,] | [F,A,]2 [F,B,] [F,A,]2 [F,D] | [F,C]3- [F,C]2 [F,C] | [F,C]2 [F,D] [F,C]2 [F,B,] | %4
 [F,A,]3 [F,A,]3 | [C,B,]2 [C,A,] [C,B,] [C,C]2 | [C,D]2 [C,C] [C,D] [C,E]2 | %7
 ([F,-F]3 [F,E]2) [F,D] | [F,C]3- [F,C]2 || [F,A,] | [F,A,]2 [F,B,] [F,A,]2 [F,D] | %11
 [F,C]3- [F,C]2 [F,A,] | [D,A,]2 [D,A,] [D,A,]2 [D,^C] |[M:2/4] [D,D]2 [D,D]2 | %14
 [G,D]>[G,C] [G,,G,=B,][G,,G,A,] | (G,-[F,G,] [C,E,]) ([C,E]2 [C,E]) | [G,D]>[G,C] [G,C][G,A,] | %17
 [G,,G,][G,,F,] [C,E,]D,/E,/ | F,/G,/A,/B,/ C[C,C] | (B,D [E,C])[E,C]/[E,C]/ | %20
 [F,C][B,,D] [C,B,]>[F,A,] | [F,A,]3 [F,A,] | [F,C]2 z [F,C] | [F,_E]2 (D=E) | [F,F]4- | %25
 [F,F]2 [F,C]2 | [D,B,]>[D,B,] [D,B,][B,,D] | [F,C]>[F,B,] [F,A,][A,C] | [B,D]>[B,D] [G,B,][G,B,] | %29
 [A,C]>[G,C] [F,C][F,C] | [B,D]2 [G,B,]2 | !fermata![C,G,]3 [C,G,] | !fermata![F,,F,A,C]4 |] %33
V:4
 x | x6 | x6 | x6 | x6 | x6 | x6 | x6 | x5 || x | x6 | x6 | x6 |[M:2/4] x4 | x4 | [G,,C,]2 x4 | %16
 x4 | x3 D,/E,/ | F,/G,/A,/B,/ C x | D,2 x2 | x4 | x4 | x4 | x2 F,2 | x4 | x4 | x4 | x4 | x4 | x4 | %30
 x4 | x4 | x4 |] %33

